X: 19858
T: Jessica's
R: polka
M: 2/4
K: Amajor
|:ef/e/ ce|fe Bc|AB c/B/A|ec B2|
ef/e/ ce|fe Bc|AB c/B/A|FA E2:|
|:FB AF|cB Ac|ef/e/ ce|ag f2|
ef/e/ ce|fe Bc|AB c/B/A|FA E2:|

